X: 23624
T: Lilting Fisherman, The
R: reel
M: 4/4
K: Cmajor
|G~E3 GAcd|egdB cAAc|G~E3 GAcd|egdB c2 Ac|
G~E3 GAcd|e2dB cAAc|G~E3 GAcd|egdB c3d|
e~g3 eaae|gedB cAAc|e~g3 e~a3|bagb a3g|
egge agea|gedB cAAc|G~E3 GAcd|e2dB cAAc|

